misc/icons/Mountain/24x24/apps/com.github.gi_lom.dialect.svg

<svg xmlns="http://www.w3.org/2000/svg" width="24" height="24" version="1.1">
 <path style="opacity:0.2" d="m 15.999974,17.215873 c 0.135961,0.33731 0.102656,0.698691 -0.388893,0.965897 l -1.750021,1.159077 c -0.287879,0.141111 -0.777787,0.772717 0,1.149263 -0.661567,-0.08603 -0.802093,-0.554638 -0.972235,-0.956084 l -3.111148,-8.306714 5.055617,3.09087 z"/>
 <path style="opacity:0.2" d="m 12.111038,7.5 h 9.517198 C 22.388562,7.5 23,8.101151 23,8.848685 v 10.30263 C 23,19.898849 22.388562,20.5 21.628236,20.5 h -7.57273 c -0.388894,0 -0.643346,-0.114258 -0.875011,-0.382351 z"/>
 <path style="fill:#e4e4e4" d="m 12.111038,7 h 9.517198 C 22.388562,7 23,7.601151 23,8.348685 v 10.30263 C 23,19.398849 22.388562,20 21.628236,20 h -7.57273 c -0.388894,0 -0.643346,-0.114258 -0.875011,-0.382351 z"/>
 <path style="opacity:0.1" d="m 15.988072,11.045218 -0.632711,-0.03547 c 0.0068,0.190916 -0.0068,0.359952 -0.0357,0.586338 -0.01443,0.119982 -0.04253,0.275436 -0.07064,0.458801 h -0.121529 c -0.432956,0 -0.973751,-0.0498 -1.350492,-0.113191 l 0.0076,0.55087 c 0.412441,0.03547 0.859825,0.07093 1.350492,0.07093 h 0.0068 c -0.177736,0.797619 -0.461811,1.958215 -0.824124,2.663822 l 0.525609,0.190915 c 0.0714,-0.126773 0.135201,-0.225633 0.22027,-0.332037 0.476238,-0.557651 1.258595,-1.097237 2.103913,-1.097237 0.831708,0 1.265421,0.659571 1.265421,1.181754 0,1.165876 -1.592033,1.441292 -3.241039,1.214924 l 0.148872,0.565204 c 2.160888,0.225634 3.675434,-0.317683 3.675434,-1.793709 0,-0.819505 -0.661567,-1.648107 -1.791789,-1.648107 -0.739053,0 -1.378588,0.426394 -1.996968,0.85727 0.148873,-0.402953 0.312185,-1.223979 0.440539,-1.817098 0.902349,-0.03547 1.989968,-0.148657 2.821812,-0.296569 l -0.0068,-0.536518 c -0.874252,0.19016 -1.876859,0.289016 -2.708644,0.324484 0.0357,-0.15545 0.05697,-0.29657 0.07823,-0.4022 0.04254,-0.190915 0.07823,-0.409753 0.135201,-0.593119 z m 2.665281,-0.247502 -0.37674,0.16224 c 0.192168,0.261855 0.433713,0.691969 0.575737,0.981738 l 0.384344,-0.169032 c -0.142038,-0.289769 -0.405597,-0.720656 -0.583341,-0.974957 z m 0.789182,-0.282216 -0.37674,0.16224 c 0.198996,0.261101 0.433713,0.664054 0.590184,0.974204 l 0.383586,-0.175825 c -0.135201,-0.261854 -0.412441,-0.699522 -0.59701,-0.960623 z"/>
 <path style="opacity:0.2;fill:#ffffff" d="m 12.111328,7 0.04199,0.5 h 9.474611 C 22.388255,7.5 23,8.101099 23,8.848633 v -0.5 C 23,7.601099 22.388255,7 21.627929,7 Z"/>
 <path style="fill:#6b6a6e" d="m 15.988072,10.545218 -0.632711,-0.03547 c 0.0068,0.190916 -0.0068,0.359952 -0.0357,0.586338 -0.01443,0.119982 -0.04253,0.275436 -0.07064,0.458801 h -0.121529 c -0.432956,0 -0.973751,-0.0498 -1.350492,-0.113191 l 0.0076,0.55087 c 0.412441,0.03547 0.859825,0.07093 1.350492,0.07093 h 0.0068 c -0.177736,0.797619 -0.461811,1.958215 -0.824124,2.663822 l 0.525609,0.190915 c 0.0714,-0.126773 0.135201,-0.225633 0.22027,-0.332037 0.476238,-0.557651 1.258595,-1.097237 2.103913,-1.097237 0.831708,0 1.265421,0.659571 1.265421,1.181754 0,1.165876 -1.592033,1.441292 -3.241039,1.214924 l 0.148872,0.565204 c 2.160888,0.225634 3.675434,-0.317683 3.675434,-1.793709 0,-0.819505 -0.661567,-1.648107 -1.791789,-1.648107 -0.739053,0 -1.378588,0.426394 -1.996968,0.85727 0.148873,-0.402953 0.312185,-1.223979 0.440539,-1.817098 0.902349,-0.03547 1.989968,-0.148657 2.821812,-0.296569 l -0.0068,-0.536518 c -0.874252,0.19016 -1.876859,0.289016 -2.708644,0.324484 0.0357,-0.15545 0.05697,-0.29657 0.07823,-0.4022 0.04254,-0.190915 0.07823,-0.409753 0.135201,-0.593119 z m 2.665281,-0.247502 -0.37674,0.16224 c 0.192168,0.261855 0.433713,0.691969 0.575737,0.981738 l 0.384344,-0.169032 c -0.142038,-0.289769 -0.405597,-0.720656 -0.583341,-0.974957 z m 0.789182,-0.282216 -0.37674,0.16224 c 0.198996,0.261101 0.433713,0.664054 0.590184,0.974204 l 0.383586,-0.175825 c -0.135201,-0.261854 -0.412441,-0.699522 -0.59701,-0.960623 z"/>
 <path style="fill:#7d45a8" d="m 15.999974,16.715873 c 0.135961,0.33731 0.102656,0.698691 -0.388893,0.965897 l -1.750021,1.159077 c -0.287879,0.141111 -0.777787,0.772717 0,1.149263 -0.661567,-0.08603 -0.802093,-0.554638 -0.972235,-0.956084 l -3.111148,-8.306714 5.055617,3.09087 z"/>
 <path style="opacity:0.2" d="m 3.3716276,3.5001343 h 7.3677834 c 0.760326,0 1.097555,0.6539608 1.371764,1.3528522 C 12.564625,6.1511475 15.95,17.0915 15.95,17.0915 15.793531,16.761892 15.41677,16.5 15.027877,16.5 H 3.3717638 C 2.6114379,16.5 2,15.913193 2,15.163349 V 4.8528525 C 2,4.1030085 2.6114379,3.5 3.3717638,3.5 Z"/>
 <path style="fill:#cd50dc" d="m 3.3716276,3.0001343 h 7.3677834 c 0.760326,0 1.097555,0.6539608 1.371764,1.3528523 C 12.564625,5.6511475 15.95,16.5915 15.95,16.5915 15.793531,16.261892 15.41677,16 15.027877,16 H 3.3717638 C 2.6114379,16 2,15.413192 2,14.663349 V 4.3528523 C 2,3.6030085 2.6114379,3 3.3717638,3 Z"/>
 <g style="opacity:0.2" transform="matrix(0.19161493,0,0,0.17907026,4.5568905,12.5)">
  <path d="m 2.3125,0 h 11.328 c 8.2656,0 14.766,-6.1406 14.766,-13.875 0,-7.8594 -6.5,-14.047 -14.766,-14.047 H 2.3125 Z m 11.172,-22.33755 c 4.3906,0 7.8125,3.99415 7.8125,8.46295 0,4.375 -3.460515,8.9119306 -7.8125,8.2901999 H 10.1407 V -22.33765 Z"/>
 </g>
 <g style="fill:#e8b3e9" transform="matrix(0.19161493,0,0,0.17907026,4.5568905,12)">
  <path d="m 2.3125,0 h 11.328 c 8.2656,0 14.766,-6.1406 14.766,-13.875 0,-7.8594 -6.5,-14.047 -14.766,-14.047 H 2.3125 Z m 11.172,-22.33755 c 4.3906,0 7.8125,3.99415 7.8125,8.46295 0,4.375 -3.460515,8.9119306 -7.8125,8.2901999 H 10.1407 V -22.33765 Z"/>
 </g>
 <path style="opacity:0.2;fill:#ffffff" d="M 3.3720703,3 C 2.6117445,3 2,3.6026952 2,4.352539 v 0.5 C 2,4.1026951 2.6117445,3.5 3.3720703,3.5 h 7.3671877 c 0.760326,0 1.097861,0.6536476 1.37207,1.352539 0.420586,1.204076 3.160591,10.052248 3.584961,11.422851 0.104783,0.09247 0.197154,0.196854 0.253907,0.316407 0,0 -3.385418,-10.941097 -3.838868,-12.239258 C 11.837119,3.6536475 11.499584,3 10.739258,3 Z"/>
</svg>

<svg xmlns="http://www.w3.org/2000/svg" width="24" height="24" version="1.1">
 <path style="opacity:0.2" d="M 16,17.216 C 16.136,17.553 16.103,17.915 15.611,18.182 L 13.861,19.341 C 13.573,19.482 13.083,20.114 13.861,20.49 13.199,20.404 13.059,19.935 12.889,19.534 L 9.7777,11.227 14.833,14.318 Z"/>
 <path style="opacity:0.2" d="M 12.111,7.5 H 21.628 C 22.389,7.5 23,8.1012 23,8.8487 V 19.151 C 23,19.899 22.389,20.5 21.628,20.5 H 14.056 C 13.667,20.5 13.412,20.386 13.18,20.118 Z"/>
 <path style="fill:#e4e4e4" d="M 12.111,7 H 21.628 C 22.389,7 23,7.6012 23,8.3487 V 18.651 C 23,19.399 22.389,20 21.628,20 H 14.056 C 13.667,20 13.412,19.886 13.18,19.618 Z"/>
 <path style="opacity:0.1" d="M 15.988,11.045 15.355,11.01 C 15.362,11.201 15.349,11.37 15.32,11.596 15.305,11.716 15.277,11.872 15.249,12.055 H 15.127 C 14.695,12.055 14.154,12.005 13.777,11.942 L 13.785,12.493 C 14.197,12.528 14.644,12.563 15.135,12.563 H 15.142 C 14.964,13.361 14.68,14.522 14.318,15.227 L 14.843,15.418 C 14.915,15.291 14.979,15.193 15.064,15.086 15.54,14.529 16.322,13.989 17.168,13.989 17.999,13.989 18.433,14.649 18.433,15.171 18.433,16.337 16.841,16.612 15.192,16.386 L 15.341,16.951 C 17.502,17.176 19.016,16.633 19.016,15.157 19.016,14.338 18.355,13.509 17.224,13.509 16.485,13.509 15.846,13.935 15.227,14.366 15.376,13.963 15.54,13.142 15.668,12.549 16.57,12.514 17.658,12.401 18.49,12.253 L 18.483,11.716 C 17.609,11.906 16.606,12.005 15.774,12.041 15.81,11.885 15.831,11.744 15.853,11.638 15.895,11.447 15.931,11.229 15.988,11.045 Z M 18.653,10.798 18.277,10.96 C 18.469,11.222 18.71,11.652 18.852,11.942 L 19.237,11.773 C 19.095,11.483 18.831,11.052 18.653,10.798 Z M 19.443,10.516 19.066,10.678 C 19.265,10.939 19.5,11.342 19.656,11.652 L 20.04,11.476 C 19.904,11.214 19.627,10.777 19.443,10.515 Z"/>
 <path style="opacity:0.2;fill:#ffffff" d="M 12.111,7 12.153,7.5 H 21.628 C 22.388,7.5 23,8.1011 23,8.8486 V 8.3486 C 23,7.6011 22.388,7 21.628,7 Z"/>
 <path style="fill:#6b6a6e" d="M 15.988,10.545 15.355,10.51 C 15.362,10.701 15.349,10.87 15.32,11.096 15.305,11.216 15.277,11.372 15.249,11.555 H 15.127 C 14.695,11.555 14.154,11.505 13.777,11.442 L 13.785,11.993 C 14.197,12.028 14.644,12.063 15.135,12.063 H 15.142 C 14.964,12.861 14.68,14.022 14.318,14.727 L 14.843,14.918 C 14.915,14.791 14.979,14.693 15.064,14.586 15.54,14.029 16.322,13.489 17.168,13.489 17.999,13.489 18.433,14.149 18.433,14.671 18.433,15.837 16.841,16.112 15.192,15.886 L 15.341,16.451 C 17.502,16.676 19.016,16.133 19.016,14.657 19.016,13.838 18.355,13.009 17.224,13.009 16.485,13.009 15.846,13.435 15.227,13.866 15.376,13.463 15.54,12.642 15.668,12.049 16.57,12.014 17.658,11.901 18.49,11.753 L 18.483,11.216 C 17.609,11.406 16.606,11.505 15.774,11.541 15.81,11.385 15.831,11.244 15.853,11.138 15.895,10.947 15.931,10.729 15.988,10.545 Z M 18.653,10.298 18.277,10.46 C 18.469,10.722 18.71,11.152 18.852,11.442 L 19.237,11.273 C 19.095,10.983 18.831,10.552 18.653,10.298 Z M 19.443,10.016 19.066,10.178 C 19.265,10.439 19.5,10.842 19.656,11.152 L 20.04,10.976 C 19.904,10.714 19.627,10.277 19.443,10.015 Z"/>
 <path style="fill:#1d7a4f" d="M 16,16.716 C 16.136,17.053 16.103,17.415 15.611,17.682 L 13.861,18.841 C 13.573,18.982 13.083,19.614 13.861,19.99 13.199,19.904 13.059,19.435 12.889,19.034 L 9.7777,10.727 14.833,13.818 Z"/>
 <path style="opacity:0.2" d="M 3.3716,3.5001 H 10.739 C 11.5,3.5001 11.837,4.1541 12.111,4.853 12.565,6.1511 15.95,17.091 15.95,17.091 15.794,16.762 15.417,16.5 15.028,16.5 H 3.3718 C 2.6114,16.5 2,15.913 2,15.163 V 4.8529 C 2,4.103 2.6114,3.5 3.3718,3.5 Z"/>
 <path style="fill:#33d17a" d="M 3.3716,3.0001 H 10.739 C 11.5,3.0001 11.837,3.6541 12.111,4.353 12.565,5.6511 15.95,16.591 15.95,16.591 15.794,16.262 15.417,16 15.028,16 H 3.3718 C 2.6114,16 2,15.413 2,14.663 V 4.3529 C 2,3.603 2.6114,3 3.3718,3 Z"/>
 <path style="opacity:0.2" d="M 5,12.5 H 7.1707 C 8.7543,12.5 10,11.4 10,10.015 10,8.6081 8.7545,7.5 7.1707,7.5 H 5 Z M 7.1408,8.4999 C 7.9819,8.4999 8.6376,9.2153 8.6376,10.015 8.6376,10.799 7.9745,11.611 7.1408,11.5 H 6.5 V 8.4999 Z"/>
 <path style="fill:#ffffff" d="M 5,12 H 7.1707 C 8.7543,12 10,10.9 10,9.5154 10,8.1081 8.7545,7 7.1707,7 H 5 Z M 7.1408,7.9999 C 7.9819,7.9999 8.6376,8.7153 8.6376,9.5154 8.6376,10.299 7.9745,11.111 7.1408,11 H 6.5 V 7.9999 Z"/>
 <path style="opacity:0.2;fill:#ffffff" d="M 3.3721,3 C 2.6117,3 2,3.6027 2,4.3525 V 4.8525 C 2,4.1027 2.6117,3.5 3.3721,3.5 H 10.739 C 11.5,3.5 11.837,4.1536 12.111,4.8525 12.532,6.0566 15.272,14.905 15.696,16.275 15.801,16.368 15.893,16.472 15.95,16.592 15.95,16.592 12.565,5.6507 12.111,4.3525 11.837,3.6536 11.5,3 10.739,3 Z"/>
</svg>
